svg/Pictogram/pictograms-nps-land-skateboarding.svg

<svg xmlns="http://www.w3.org/2000/svg" width="123.55" height="123.54" viewBox="-0.258 -0.548 123.547 123.539" enable-background="new -0.258 -0.548 123.547 123.539"><path d="m108.66 122.91c8.148 0 14.742-6.617 14.742-14.773v-94.02c0-8.156-6.594-14.773-14.742-14.773h-94c-8.156 0-14.773 6.617-14.773 14.773v94.02c0 8.156 6.617 14.773 14.773 14.773h94"/><path d="m14.656 1.855c-6.766 0-12.273 5.5-12.273 12.266v94.02c0 6.766 5.508 12.273 12.273 12.273h94c6.758 0 12.258-5.508 12.258-12.273v-94.02c0-6.766-5.5-12.266-12.258-12.266h-94"/><g fill="#fff"><path d="m50.43 115.22c1.727 0 3.117-1.398 3.117-3.117s-1.391-3.109-3.117-3.109c-1.719 0-3.109 1.391-3.109 3.109s1.39 3.117 3.109 3.117"/><path d="m75.6 115.16c1.727 0 3.125-1.406 3.125-3.148 0-1.727-1.398-3.125-3.125-3.125-1.711 0-3.102 1.398-3.102 3.125 0 1.742 1.391 3.148 3.102 3.148"/><path d="m44.28 105.94c0 0-1.828-.094-1.828-1.977v-.172c0-1.852 1.828-1.977 1.828-1.977h37.34c0 0 1.836.172 1.836 1.977v.172c0 1.805-1.836 1.977-1.836 1.977h-37.34"/><path d="m70.23 24.598c4.562 0 8.273-3.711 8.273-8.281 0-4.562-3.711-8.25-8.273-8.25s-8.273 3.688-8.273 8.25c-.0001 4.57 3.71 8.281 8.273 8.281"/><path d="m25.344 96.91c-.391.734-.609 1.562-.609 2.461 0 2.906 2.367 5.273 5.297 5.273 2.102 0 3.906-1.219 4.766-2.977l18.05-31.03-7.5-7.492-20.01 33.766"/><path d="m64.47 95.52c-.852 1.758-2.656 2.977-4.758 2.977-2.906 0-5.273-2.367-5.273-5.273 0-.906.219-1.734.609-2.469l7.859-13.812-15.328-15.236c-5.883-5.914-1.688-12.305-1.688-12.305l8.25-14.578-21.883.023c-2.422 0-4.344-1.953-4.344-4.344 0-2.367 1.922-4.32 4.344-4.32h66.24c2.391 0 4.32 1.953 4.32 4.344s-1.93 4.32-4.32 4.32h-25.27l-12.06 21.12 12.273 12.133c4.297 4.125 1.516 8.766 1.516 8.766l-10.492 18.656"/></g></svg>

<?xml version="1.0" encoding="iso-8859-1"?>
<!-- Generator: Adobe Illustrator 13.0.2, SVG Export Plug-In . SVG Version: 6.00 Build 14948)  -->
<!DOCTYPE svg PUBLIC "-//W3C//DTD SVG 1.1//EN" "http://www.w3.org/Graphics/SVG/1.1/DTD/svg11.dtd">
<svg version="1.1" id="Layer_1" xmlns="http://www.w3.org/2000/svg" xmlns:xlink="http://www.w3.org/1999/xlink" x="0px" y="0px"
	 width="123.547px" height="123.539px" viewBox="-0.258 -0.548 123.547 123.539"
	 style="enable-background:new -0.258 -0.548 123.547 123.539;" xml:space="preserve">
<g>
	<path d="M108.656,122.91c8.148,0,14.742-6.617,14.742-14.773V14.121c0-8.156-6.594-14.773-14.742-14.773h-94
		C6.5-0.652-0.117,5.965-0.117,14.121v94.016c0,8.156,6.617,14.773,14.773,14.773H108.656z"/>
	<path d="M14.656,1.855c-6.766,0-12.273,5.5-12.273,12.266v94.016c0,6.766,5.508,12.273,12.273,12.273h94
		c6.758,0,12.258-5.508,12.258-12.273V14.121c0-6.766-5.5-12.266-12.258-12.266H14.656z"/>
	<path style="fill:#FFFFFF;" d="M50.43,115.223c1.727,0,3.117-1.398,3.117-3.117s-1.391-3.109-3.117-3.109
		c-1.719,0-3.109,1.391-3.109,3.109S48.711,115.223,50.43,115.223z"/>
	<path style="fill:#FFFFFF;" d="M75.602,115.16c1.727,0,3.125-1.406,3.125-3.148c0-1.727-1.398-3.125-3.125-3.125
		c-1.711,0-3.102,1.398-3.102,3.125C72.5,113.754,73.891,115.16,75.602,115.16z"/>
	<path style="fill:#FFFFFF;" d="M44.281,105.941c0,0-1.828-0.094-1.828-1.977v-0.172c0-1.852,1.828-1.977,1.828-1.977h37.344
		c0,0,1.836,0.172,1.836,1.977v0.172c0,1.805-1.836,1.977-1.836,1.977H44.281z"/>
	<path style="fill:#FFFFFF;" d="M70.227,24.598c4.562,0,8.273-3.711,8.273-8.281c0-4.562-3.711-8.25-8.273-8.25
		s-8.273,3.688-8.273,8.25C61.953,20.887,65.664,24.598,70.227,24.598z"/>
	<path style="fill:#FFFFFF;" d="M25.344,96.91c-0.391,0.734-0.609,1.562-0.609,2.461c0,2.906,2.367,5.273,5.297,5.273
		c2.102,0,3.906-1.219,4.766-2.977l18.055-31.031l-7.5-7.492L25.344,96.91z"/>
	<path style="fill:#FFFFFF;" d="M64.469,95.52c-0.852,1.758-2.656,2.977-4.758,2.977c-2.906,0-5.273-2.367-5.273-5.273
		c0-0.906,0.219-1.734,0.609-2.469l7.859-13.812L47.578,61.707c-5.883-5.914-1.688-12.305-1.688-12.305l8.25-14.578l-21.883,0.023
		c-2.422,0-4.344-1.953-4.344-4.344c0-2.367,1.922-4.32,4.344-4.32H98.5c2.391,0,4.32,1.953,4.32,4.344s-1.93,4.32-4.32,4.32H73.227
		L61.172,55.965l12.273,12.133c4.297,4.125,1.516,8.766,1.516,8.766L64.469,95.52z"/>
</g>
</svg>
